libs/ui/packages/icons/src/svg-legacy/medium/europa.svg

<svg width="23.999999999999996" height="23.999999999999996" xmlns="http://www.w3.org/2000/svg">

 <g>
  <title>Layer 1</title>
  <path id="svg_1" d="m15.5999,3.5l-10.2,0l0,18l10.2,0c1.6569,0 3,-1.3431 3,-3l0,-9l0.6,0l0,-2.4l-0.6,0l0,-0.6c0,-1.65685 -1.3431,-3 -3,-3zm-8.4,16.2l0,-14.4l8.4,0c0.6627,0 1.2,0.53726 1.2,1.2l0,12c0,0.6627 -0.5373,1.2 -1.2,1.2l-8.4,0z"/>
  <text transform="matrix(0.570508 0 0 0.573891 3.27204 0.45106)" stroke="#000" xml:space="preserve" text-anchor="start" font-family="Noto Sans JP" font-size="24" id="svg_2" y="28.33952" x="7.63344" stroke-width="0" fill="#000000">E</text>
 </g>
</svg>

<svg width="24" height="24" viewBox="0 0 24 24"  xmlns="http://www.w3.org/2000/svg">
<path d="M15.5999 3.5H5.3999V21.5H15.5999C17.2568 21.5 18.5999 20.1569 18.5999 18.5L18.5999 9.5H19.1999V7.1H18.5999L18.5999 6.5C18.5999 4.84315 17.2568 3.5 15.5999 3.5ZM7.1999 19.7V5.3H15.5999C16.2626 5.3 16.7999 5.83726 16.7999 6.5V18.5C16.7999 19.1627 16.2626 19.7 15.5999 19.7H7.1999Z" />
</svg>
